X:1
T:Buxtehude - Aria:  La Capricciosa in G Minor.
%%score { ( 1 4 5 ) | ( 2 3 ) }
L:1/8
Q:1/4=160
M:12/8
K:G
V:1 treble nm="Harpsichord" snm="Hch."
V:4 treble 
V:5 treble 
V:2 bass 
V:3 bass 
V:1
"^Partita 19" BdF GBD EGB, CEG, | A,DG, A,CF, G,B,[I:staff +1]D,"_*"[I:staff -1] G,3 | %2
 DGB, CGB, EGC DGB, | CGA, CFA, z3 G3 :: GBD GBD GcE GdD | AeG AcF GBD MG3 | GBF GBE GcA GB=D | %7
 EGB, A,CF G3 G3 :| %8
V:2
!f! G2 D E2 B, C2 G, A,2 E, | F,2 B,, C,2 D, G,,3- z B,,D, | G,2 =F, E,2 D, C,2 E, G,2 G,, | %3
 E,2 C,, D,,3 z z G,"^*" G,3 :: G,2 F, E,2 B,, E,2 C, B,,2 B, | C2 E D2 D, G,3 G,,B,,D, | %6
 G,2 ^D, E,3 E,,2 F, G,2 B,, | C,2 C,, D,,2 D, (G,,B,,D,)"^*" G,2 G,, :| %8
V:3
 x12 | x9 G,,3 | G,,3 x9 | x6 G,,3- G,,3 :: x12 | x12 | x12 | x12 :| %8
V:4
 x12 | x12 | x12 | x6 B,3 [B,D]3 :: x12 | x12 | x12 | x9 [B,D]3 :| %8
V:5
 x12 | x12 | x12 | x6 z PD2 x3 :: x12 | x12 | x12 | x12 :| %8

